status/24/battery-caution-charging-symbolic.svg

<?xml version="1.0" encoding="UTF-8" standalone="no"?>
<svg
   xmlns:dc="http://purl.org/dc/elements/1.1/"
   xmlns:cc="http://creativecommons.org/ns#"
   xmlns:rdf="http://www.w3.org/1999/02/22-rdf-syntax-ns#"
   xmlns:svg="http://www.w3.org/2000/svg"
   xmlns="http://www.w3.org/2000/svg"
   height="24"
   width="24"
   version="1.1"
   id="svg8">
  <metadata
     id="metadata14">
    <rdf:RDF>
      <cc:Work
         rdf:about="">
        <dc:format>image/svg+xml</dc:format>
        <dc:type
           rdf:resource="http://purl.org/dc/dcmitype/StillImage" />
        <dc:title></dc:title>
      </cc:Work>
    </rdf:RDF>
  </metadata>
  <defs
     id="defs12" />
  <path
     id="rect851"
     style="font-variation-settings:normal;opacity:1;vector-effect:none;fill:#555761;fill-opacity:1;stroke-width:0.999999;stroke-linecap:butt;stroke-linejoin:miter;stroke-miterlimit:4;stroke-dasharray:none;stroke-dashoffset:0;stroke-opacity:0.5;stop-color:#000000;stop-opacity:1"
     d="m 2.9995937,6 c -0.554,0 -1,2.453 -1,5.5 0,3.047 0.446,5.5 1,5.5 H 10.34375 C 10.286073,16.842256 10.25,16.675513 10.25,16.5 c 0,-0.146607 0.02774,-0.281482 0.06445,-0.408203 L 10.333984,16 H 3.6324062 C 3.2815783,16 2.9995937,13.993 2.9995937,11.5 2.9995937,9.007 3.2815783,7 3.6324062,7 H 10.058594 L 10.767578,6 Z M 12.25,6 C 12.100785,6 11.96661,6.064316 11.875,6.1679688 L 7.5703125,12.244141 C 7.5258995,12.318841 7.5,12.40679 7.5,12.5 7.5,12.776138 7.723863,13 8,13 h 4 l -0.707031,3.300781 C 11.266199,16.362041 11.25,16.428871 11.25,16.5 c 0,0.276138 0.223862,0.5 0.5,0.5 0.149215,0 0.283389,-0.06431 0.375,-0.167969 l 4.304688,-6.076172 C 16.474097,10.681159 16.5,10.59321 16.5,10.5 16.5,10.223862 16.276138,10 16,10 H 12 L 12.707031,6.6992188 C 12.733801,6.6379588 12.75,6.571129 12.75,6.5 12.75,6.223863 12.526137,6 12.25,6 Z m 1.40625,0 C 13.71393,6.1577439 13.75,6.3244866 13.75,6.5 c 0,0.1466073 -0.02774,0.2814821 -0.06445,0.4082031 L 13.666016,7 h 6.701172 C 20.718015,7 21,9.007 21,11.5 21,13.993 20.718015,16 20.367188,16 h -6.425782 l -0.708984,1 H 21 c 0.387343,0 0.712678,-1.23711 0.878906,-3 h 1.619141 C 23.776155,14 24,12.885 24,11.5 24,10.115 23.776155,9 23.498047,9 H 21.878906 C 21.712678,7.2371104 21.387343,6 21,6 Z m 8.289062,4 h 0.904297 C 22.932709,10 23,10.669 23,11.5 23,12.331 22.932709,13 22.849609,13 H 21.945312 C 21.970781,12.513456 22,12.032809 22,11.5 22,10.967191 21.970781,10.486544 21.945312,10 Z" />
  <path
     id="rect851-7-2"
     style="font-variation-settings:normal;opacity:0.3;vector-effect:none;fill:#555761;fill-opacity:1;stroke:none;stroke-width:0.999999;stroke-linecap:butt;stroke-linejoin:miter;stroke-miterlimit:4;stroke-dasharray:none;stroke-dashoffset:0;stroke-opacity:0.5;marker:none;stop-color:#000000;stop-opacity:1"
     d="M 4.3359375 8 C 4.2430299 8 4.1584137 8.3908125 4.0976562 9.0234375 C 4.0368988 9.6560625 4 10.5305 4 11.5 C 4 12.4695 4.0368988 13.343937 4.0976562 13.976562 C 4.1584137 14.609188 4.2430299 15 4.3359375 15 L 7.6640625 15 C 7.7561237 15 7.8397685 14.612704 7.9003906 13.990234 C 7.1293389 13.936607 6.5 13.282598 6.5 12.5 C 6.5 12.221549 6.577595 11.956696 6.7109375 11.732422 C 6.7243795 11.709732 6.7387132 11.687576 6.7539062 11.666016 L 7.9609375 9.9609375 C 7.9060286 8.8082025 7.7961565 8 7.6640625 8 L 4.3359375 8 z " />
</svg>

<svg
        xmlns='http://www.w3.org/2000/svg'
        xmlns:svg='http://www.w3.org/2000/svg'
        id='svg8'
        width='24'
        height='24'>
  <path
          id='rect851'
          opacity='1'
          fill='url(#gpa:foreground) #555761'
          fill-opacity='1'
          fill-rule='nonzero'
          stroke-opacity='0.5'
          stroke-width='0.999999'
          stroke-linecap='butt'
          stroke-linejoin='miter'
          stroke-miterlimit='4'
          stroke-dasharray='none'
          stroke-dashoffset='0'
          d='M 2.99959 6 C 2.44559 6, 1.99959 8.453, 1.99959 11.5 C 1.99959 14.547, 2.44559 17, 2.99959 17 L 10.3438 17 C 10.2861 16.8423, 10.25 16.6755, 10.25 16.5 C 10.25 16.3534, 10.2777 16.2185, 10.3145 16.0918 L 10.334 16 L 3.63241 16 C 3.28158 16, 2.99959 13.993, 2.99959 11.5 C 2.99959 9.007, 3.28158 7, 3.63241 7 L 10.0586 7 L 10.7676 6 Z M 12.25 6 C 12.1008 6, 11.9666 6.06432, 11.875 6.16797 L 7.57031 12.2441 C 7.5259 12.3188, 7.5 12.4068, 7.5 12.5 C 7.5 12.7761, 7.72386 13, 8 13 L 12 13 L 11.293 16.3008 C 11.2662 16.362, 11.25 16.4289, 11.25 16.5 C 11.25 16.7761, 11.4739 17, 11.75 17 C 11.8992 17, 12.0334 16.9357, 12.125 16.832 L 16.4297 10.7559 C 16.4741 10.6812, 16.5 10.5932, 16.5 10.5 C 16.5 10.2239, 16.2761 10, 16 10 L 12 10 L 12.707 6.69922 C 12.7338 6.63796, 12.75 6.57113, 12.75 6.5 C 12.75 6.22386, 12.5261 6, 12.25 6 Z M 13.6562 6 C 13.7139 6.15774, 13.75 6.32449, 13.75 6.5 C 13.75 6.64661, 13.7223 6.78148, 13.6855 6.9082 L 13.666 7 L 20.3672 7 C 20.718 7, 21 9.007, 21 11.5 C 21 13.993, 20.718 16, 20.3672 16 L 13.9414 16 L 13.2324 17 L 21 17 C 21.3873 17, 21.7127 15.7629, 21.8789 14 L 23.498 14 C 23.7762 14, 24 12.885, 24 11.5 C 24 10.115, 23.7762 9, 23.498 9 L 21.8789 9 C 21.7127 7.23711, 21.3873 6, 21 6 Z M 21.9453 10 L 22.8496 10 C 22.9327 10, 23 10.669, 23 11.5 C 23 12.331, 22.9327 13, 22.8496 13 L 21.9453 13 C 21.9708 12.5135, 22 12.0328, 22 11.5 C 22 10.9672, 21.9708 10.4865, 21.9453 10 Z'
          class="foreground">
  </path>
  <path
          id='rect851-7-2'
          opacity='0.3'
          fill='url(#gpa:foreground) #555761'
          fill-opacity='1'
          fill-rule='nonzero'
          stroke='none'
          stroke-opacity='0.5'
          stroke-width='0.999999'
          stroke-linecap='butt'
          stroke-linejoin='miter'
          stroke-miterlimit='4'
          stroke-dasharray='none'
          stroke-dashoffset='0'
          marker-start='none'
          marker-mid='none'
          marker-end='none'
          d='M 4.33594 8 C 4.24303 8, 4.15841 8.39081, 4.09766 9.02344 C 4.0369 9.65606, 4 10.5305, 4 11.5 C 4 12.4695, 4.0369 13.3439, 4.09766 13.9766 C 4.15841 14.6092, 4.24303 15, 4.33594 15 L 7.66406 15 C 7.75612 15, 7.83977 14.6127, 7.90039 13.9902 C 7.12934 13.9366, 6.5 13.2826, 6.5 12.5 C 6.5 12.2215, 6.5776 11.9567, 6.71094 11.7324 C 6.72438 11.7097, 6.73871 11.6876, 6.75391 11.666 L 7.96094 9.96094 C 7.90603 8.8082, 7.79616 8, 7.66406 8 L 4.33594 8 Z'
          class="foreground">
  </path>
</svg>
